X: 11112
Q: "Slow with Express"
M: 6/8
L: 1/8
K: D
{DE}F>ED {DE}F>ED | (FA)A A2d/>e/ | f>ed {de}f>ed | {f}e2d B2{c}d |\
{G2}F>ED {DE}F>ED | (FA)A A2d/>e/ | (fdA) BFA | {F}E2D D2 :|
|: A/G/ |\
(FA).B (FA).B | Td>ef/e/ dBA | (FA).B (FA).f | {f}e2d B2A |\
(~df.a) fdA | (B/A/)(B/c/).d/.B/ AFD | (FdA) BFA | {F}TE2D D2 :|


